src/pages/elements/images/keep-it-simple-right-3-mobile.svg

<svg xmlns="http://www.w3.org/2000/svg" viewBox="0 0 288 288"><g fill="none" fill-rule="evenodd"><path fill="#FFF" d="M0 0h288v288H0z"/><path d="M54.8 103.056H42.368V138h-4.704v-34.944H25.232v-4.144H54.8v4.144zm8.232-.728c-1.904 0-2.744-1.008-2.744-2.52v-.728c0-1.512.84-2.52 2.744-2.52 1.904 0 2.744 1.008 2.744 2.52v.728c0 1.512-.84 2.52-2.744 2.52zM60.792 138v-28.896h4.48V138h-4.48zm25.984 0h-5.6c-3.08 0-4.76-1.96-4.76-4.76v-20.216h-4.76v-3.92h2.688c1.904 0 2.52-.672 2.52-2.632v-5.376h4.032v8.008h6.328v3.92h-6.328v21.056h5.88V138zm16.408 0h-3.976c-3.08 0-4.76-1.96-4.76-4.648V96.56h4.48v37.52h4.256V138zm17.36.672c-7.84 0-12.992-5.936-12.992-15.12s5.152-15.12 12.992-15.12c7.728 0 12.488 5.936 12.488 14.112v2.128h-20.776v1.344c0 4.984 3.192 8.736 8.568 8.736 3.64 0 6.44-1.792 7.952-4.984l3.192 2.296c-1.848 3.92-5.992 6.608-11.424 6.608zm0-26.488c-4.872 0-8.288 3.696-8.288 8.736v.392h15.96v-.616c0-5.096-3.08-8.512-7.672-8.512z" fill="#3D3D3D"/><path d="M40.184 198.672c-6.272 0-10.696-2.576-13.832-6.832l3.472-2.912c2.744 3.64 5.992 5.6 10.528 5.6 5.6 0 8.624-2.912 8.624-7.392 0-3.696-2.072-5.544-7.224-6.72l-3.192-.728c-7.112-1.624-11.032-4.76-11.032-10.752 0-6.944 5.264-10.696 12.936-10.696 5.88 0 10.024 2.24 12.936 6.384l-3.528 2.576c-2.128-2.968-5.096-4.816-9.632-4.816-4.984 0-8.064 2.184-8.064 6.384 0 3.696 2.408 5.376 7.336 6.496l3.192.728c7.616 1.736 10.92 5.096 10.92 10.92 0 7.168-5.04 11.76-13.44 11.76zm38.92-.672v-4.704h-.224c-1.12 2.744-3.304 5.376-8.12 5.376-5.936 0-9.744-4.032-9.744-11.032v-18.536h4.48v17.752c0 5.152 2.296 7.784 6.608 7.784 3.528 0 7-1.736 7-5.544v-19.992h4.48V198h-4.48zm14 0v-41.44h4.48v17.248h.224c1.512-3.64 4.48-5.376 8.456-5.376 7.224 0 11.76 5.88 11.76 15.12 0 9.24-4.536 15.12-11.76 15.12-3.976 0-6.72-1.792-8.456-5.376h-.224V198h-4.48z" fill="#8C8C8C"/><path d="M105.032 194.64c5.04 0 8.176-3.472 8.176-8.624v-4.928c0-5.152-3.136-8.624-8.176-8.624-4.088 0-7.448 2.352-7.448 5.544v10.752c0 3.752 3.36 5.88 7.448 5.88z" fill="#FFF"/><path d="M137.232 198h-5.6c-3.08 0-4.76-1.96-4.76-4.76v-20.216h-4.76v-3.92h2.688c1.904 0 2.52-.672 2.52-2.632v-5.376h4.032v8.008h6.328v3.92h-6.328v21.056h5.88V198zm9.912-35.672c-1.904 0-2.744-1.008-2.744-2.52v-.728c0-1.512.84-2.52 2.744-2.52 1.904 0 2.744 1.008 2.744 2.52v.728c0 1.512-.84 2.52-2.744 2.52zM144.904 198v-28.896h4.48V198zm25.984 0h-5.6c-3.08 0-4.76-1.96-4.76-4.76v-20.216h-4.76v-3.92h2.688c1.904 0 2.52-.672 2.52-2.632v-5.376h4.032v8.008h6.328v3.92h-6.328v21.056h5.88V198zm16.408 0h-3.976c-3.08 0-4.76-1.96-4.76-4.648V156.56h4.48v37.52h4.256V198zm17.36.672c-7.84 0-12.992-5.936-12.992-15.12s5.152-15.12 12.992-15.12c7.728 0 12.488 5.936 12.488 14.112v2.128h-20.776v1.344c0 4.984 3.192 8.736 8.568 8.736 3.64 0 6.44-1.792 7.952-4.984l3.192 2.296c-1.848 3.92-5.992 6.608-11.424 6.608z" fill="#8C8C8C"/><path d="M204.656 172.184c-4.872 0-8.288 3.696-8.288 8.736v.392h15.96v-.616c0-5.096-3.08-8.512-7.672-8.512z" fill="#FFF"/></g></svg>

<?xml version="1.0" encoding="UTF-8"?>
<svg width="288px" height="288px" viewBox="0 0 288 288" version="1.1" xmlns="http://www.w3.org/2000/svg" xmlns:xlink="http://www.w3.org/1999/xlink">
    <!-- Generator: Sketch 51.2 (57519) - http://www.bohemiancoding.com/sketch -->
    <title>Keep it Simple - Right 3 Copy</title>
    <desc>Created with Sketch.</desc>
    <defs></defs>
    <g id="Page-1" stroke="none" stroke-width="1" fill="none" fill-rule="evenodd">
        <g id="Type-Basics-Copy" transform="translate(-992.000000, -12076.000000)">
            <g id="Keep-it-Simple---Right-3-Copy" transform="translate(992.000000, 12076.000000)">
                <rect id="Rectangle-16-Copy-153" fill="#FFFFFF" x="0" y="0" width="288" height="288"></rect>
                <path d="M54.8,103.056 L42.368,103.056 L42.368,138 L37.664,138 L37.664,103.056 L25.232,103.056 L25.232,98.912 L54.8,98.912 L54.8,103.056 Z M63.032,102.328 C61.128,102.328 60.288,101.32 60.288,99.808 L60.288,99.08 C60.288,97.568 61.128,96.56 63.032,96.56 C64.936,96.56 65.776,97.568 65.776,99.08 L65.776,99.808 C65.776,101.32 64.936,102.328 63.032,102.328 Z M60.792,138 L60.792,109.104 L65.272,109.104 L65.272,138 L60.792,138 Z M86.776,138 L81.176,138 C78.096,138 76.416,136.04 76.416,133.24 L76.416,113.024 L71.656,113.024 L71.656,109.104 L74.344,109.104 C76.248,109.104 76.864,108.432 76.864,106.472 L76.864,101.096 L80.896,101.096 L80.896,109.104 L87.224,109.104 L87.224,113.024 L80.896,113.024 L80.896,134.08 L86.776,134.08 L86.776,138 Z M103.184,138 L99.208,138 C96.128,138 94.448,136.04 94.448,133.352 L94.448,96.56 L98.928,96.56 L98.928,134.08 L103.184,134.08 L103.184,138 Z M120.544,138.672 C112.704,138.672 107.552,132.736 107.552,123.552 C107.552,114.368 112.704,108.432 120.544,108.432 C128.272,108.432 133.032,114.368 133.032,122.544 L133.032,124.672 L112.256,124.672 L112.256,126.016 C112.256,131 115.448,134.752 120.824,134.752 C124.464,134.752 127.264,132.96 128.776,129.768 L131.968,132.064 C130.12,135.984 125.976,138.672 120.544,138.672 Z M120.544,112.184 C115.672,112.184 112.256,115.88 112.256,120.92 L112.256,121.312 L128.216,121.312 L128.216,120.696 C128.216,115.6 125.136,112.184 120.544,112.184 Z" id="Title-Subtitle" fill="#3D3D3D"></path>
                <path d="M40.184,198.672 C33.912,198.672 29.488,196.096 26.352,191.84 L29.824,188.928 C32.568,192.568 35.816,194.528 40.352,194.528 C45.952,194.528 48.976,191.616 48.976,187.136 C48.976,183.44 46.904,181.592 41.752,180.416 L38.56,179.688 C31.448,178.064 27.528,174.928 27.528,168.936 C27.528,161.992 32.792,158.24 40.464,158.24 C46.344,158.24 50.488,160.48 53.4,164.624 L49.872,167.2 C47.744,164.232 44.776,162.384 40.24,162.384 C35.256,162.384 32.176,164.568 32.176,168.768 C32.176,172.464 34.584,174.144 39.512,175.264 L42.704,175.992 C50.32,177.728 53.624,181.088 53.624,186.912 C53.624,194.08 48.584,198.672 40.184,198.672 Z" id="Path" fill="#8C8C8C"></path>
                <path d="M79.104,198 L79.104,193.296 L78.88,193.296 C77.76,196.04 75.576,198.672 70.76,198.672 C64.824,198.672 61.016,194.64 61.016,187.64 L61.016,169.104 L65.496,169.104 L65.496,186.856 C65.496,192.008 67.792,194.64 72.104,194.64 C75.632,194.64 79.104,192.904 79.104,189.096 L79.104,169.104 L83.584,169.104 L83.584,198 L79.104,198 Z" id="Path" fill="#8C8C8C"></path>
                <path d="M93.104,198 L93.104,156.56 L97.584,156.56 L97.584,173.808 L97.808,173.808 C99.32,170.168 102.288,168.432 106.264,168.432 C113.488,168.432 118.024,174.312 118.024,183.552 C118.024,192.792 113.488,198.672 106.264,198.672 C102.288,198.672 99.544,196.88 97.808,193.296 L97.584,193.296 L97.584,198 L93.104,198 Z" id="Path" fill="#8C8C8C"></path>
                <path d="M105.032,194.64 C110.072,194.64 113.208,191.168 113.208,186.016 L113.208,181.088 C113.208,175.936 110.072,172.464 105.032,172.464 C100.944,172.464 97.584,174.816 97.584,178.008 L97.584,188.76 C97.584,192.512 100.944,194.64 105.032,194.64 Z" id="Path" fill="#FFFFFF"></path>
                <path d="M137.232,198 L131.632,198 C128.552,198 126.872,196.04 126.872,193.24 L126.872,173.024 L122.112,173.024 L122.112,169.104 L124.8,169.104 C126.704,169.104 127.32,168.432 127.32,166.472 L127.32,161.096 L131.352,161.096 L131.352,169.104 L137.68,169.104 L137.68,173.024 L131.352,173.024 L131.352,194.08 L137.232,194.08 L137.232,198 Z" id="Path" fill="#8C8C8C"></path>
                <path d="M147.144,162.328 C145.24,162.328 144.4,161.32 144.4,159.808 L144.4,159.08 C144.4,157.568 145.24,156.56 147.144,156.56 C149.048,156.56 149.888,157.568 149.888,159.08 L149.888,159.808 C149.888,161.32 149.048,162.328 147.144,162.328 Z" id="Path" fill="#8C8C8C"></path>
                <polygon id="Path" fill="#8C8C8C" points="144.904 198 144.904 169.104 149.384 169.104 149.384 198"></polygon>
                <path d="M170.888,198 L165.288,198 C162.208,198 160.528,196.04 160.528,193.24 L160.528,173.024 L155.768,173.024 L155.768,169.104 L158.456,169.104 C160.36,169.104 160.976,168.432 160.976,166.472 L160.976,161.096 L165.008,161.096 L165.008,169.104 L171.336,169.104 L171.336,173.024 L165.008,173.024 L165.008,194.08 L170.888,194.08 L170.888,198 Z" id="Path" fill="#8C8C8C"></path>
                <path d="M187.296,198 L183.32,198 C180.24,198 178.56,196.04 178.56,193.352 L178.56,156.56 L183.04,156.56 L183.04,194.08 L187.296,194.08 L187.296,198 Z" id="Path" fill="#8C8C8C"></path>
                <path d="M204.656,198.672 C196.816,198.672 191.664,192.736 191.664,183.552 C191.664,174.368 196.816,168.432 204.656,168.432 C212.384,168.432 217.144,174.368 217.144,182.544 L217.144,184.672 L196.368,184.672 L196.368,186.016 C196.368,191 199.56,194.752 204.936,194.752 C208.576,194.752 211.376,192.96 212.888,189.768 L216.08,192.064 C214.232,195.984 210.088,198.672 204.656,198.672 Z" id="Path" fill="#8C8C8C"></path>
                <path d="M204.656,172.184 C199.784,172.184 196.368,175.88 196.368,180.92 L196.368,181.312 L212.328,181.312 L212.328,180.696 C212.328,175.6 209.248,172.184 204.656,172.184 Z" id="Path" fill="#FFFFFF"></path>
            </g>
        </g>
    </g>
</svg>
